tutorial/tutorial_sphinx_theme_1/static/css/Microsoft-DirectX-12-Logo-wordmark.svg

<?xml version="1.0"?>
<svg width="1050" height="350" xmlns="http://www.w3.org/2000/svg" xmlns:svg="http://www.w3.org/2000/svg" enable-background="new -57.427 -52.094 1050 350" version="1.1" xml:space="preserve">
 <g class="layer">
  <title>Layer 1</title>
  <path d="m66.5,69.84l-7.59,0l0,-43.68c0,-3.46 0.22,-7.68 0.64,-12.67l-0.18,0c-0.73,2.93 -1.38,5.04 -1.96,6.31l-22.25,50.04l-3.72,0l-22.21,-49.68c-0.63,-1.45 -1.28,-3.68 -1.95,-6.67l-0.18,0c0.24,2.6 0.36,6.85 0.36,12.76l0,43.59l-7.35,0l0,-65.12l10.08,0l19.98,45.41c1.54,3.48 2.54,6.09 2.99,7.81l0.28,0c1.3,-3.57 2.34,-6.23 3.13,-7.99l20.39,-45.23l9.54,0l0,65.12z" id="svg_1"/>
  <path d="m86.43,11.53c-1.33,0 -2.47,-0.45 -3.4,-1.36c-0.94,-0.91 -1.41,-2.06 -1.41,-3.45c0,-1.39 0.47,-2.55 1.41,-3.47c0.93,-0.93 2.07,-1.39 3.4,-1.39c1.36,0 2.52,0.46 3.48,1.39c0.95,0.92 1.43,2.08 1.43,3.47c0,1.33 -0.48,2.47 -1.43,3.41c-0.96,0.93 -2.12,1.4 -3.48,1.4zm3.63,58.31l-7.44,0l0,-46.5l7.44,0l0,46.5z" id="svg_2"/>
  <path d="m136.84,67.71c-3.58,2.15 -7.81,3.22 -12.72,3.22c-6.63,0 -11.98,-2.16 -16.05,-6.47c-4.07,-4.31 -6.11,-9.91 -6.11,-16.78c0,-7.66 2.2,-13.81 6.59,-18.46c4.38,-4.65 10.24,-6.97 17.57,-6.97c4.09,0 7.69,0.76 10.81,2.27l0,7.63c-3.45,-2.42 -7.15,-3.63 -11.08,-3.63c-4.76,0 -8.65,1.7 -11.69,5.11c-3.05,3.4 -4.57,7.87 -4.57,13.42c0,5.44 1.43,9.74 4.29,12.89c2.86,3.15 6.7,4.72 11.51,4.72c4.06,0 7.88,-1.34 11.45,-4.04l0,7.09z" id="svg_3"/>
  <path d="m172.35,30.88c-1.3,-1 -3.18,-1.5 -5.63,-1.5c-3.18,0 -5.84,1.5 -7.97,4.5c-2.14,2.99 -3.2,7.08 -3.2,12.26l0,23.7l-7.45,0l0,-46.5l7.45,0l0,9.58l0.18,0c1.06,-3.27 2.68,-5.82 4.86,-7.65c2.18,-1.83 4.61,-2.75 7.31,-2.75c1.94,0 3.42,0.22 4.45,0.64l0,7.72z" id="svg_4"/>
  <path d="m198.64,70.93c-6.87,0 -12.36,-2.17 -16.46,-6.52c-4.1,-4.34 -6.15,-10.1 -6.15,-17.27c0,-7.81 2.13,-13.91 6.4,-18.3c4.27,-4.39 10.04,-6.59 17.3,-6.59c6.93,0 12.34,2.14 16.24,6.41s5.83,10.18 5.83,17.75c0,7.42 -2.1,13.36 -6.29,17.82c-4.19,4.47 -9.82,6.7 -16.87,6.7zm0.55,-42.41c-4.79,0 -8.57,1.62 -11.36,4.88c-2.78,3.25 -4.17,7.74 -4.17,13.46c0,5.51 1.4,9.86 4.22,13.04s6.58,4.76 11.31,4.76c4.81,0 8.51,-1.55 11.1,-4.67c2.59,-3.12 3.88,-7.56 3.88,-13.31c0,-5.81 -1.29,-10.29 -3.88,-13.44c-2.59,-3.15 -6.29,-4.72 -11.1,-4.72z" id="svg_5"/>
  <path d="m230.88,68.16l0,-7.99c4.06,3 8.52,4.5 13.4,4.5c6.54,0 9.81,-2.18 9.81,-6.54c0,-1.24 -0.28,-2.3 -0.84,-3.16c-0.56,-0.86 -1.32,-1.63 -2.27,-2.29c-0.96,-0.67 -2.08,-1.27 -3.36,-1.8c-1.29,-0.53 -2.68,-1.08 -4.16,-1.65c-2.06,-0.82 -3.87,-1.65 -5.43,-2.48s-2.86,-1.77 -3.9,-2.81c-1.04,-1.05 -1.83,-2.24 -2.36,-3.57c-0.53,-1.33 -0.8,-2.89 -0.8,-4.68c0,-2.18 0.5,-4.1 1.5,-5.79c1,-1.68 2.33,-3.08 4,-4.22c1.66,-1.13 3.56,-1.99 5.7,-2.56c2.13,-0.58 4.33,-0.87 6.61,-0.87c4.02,0 7.62,0.7 10.8,2.09l0,7.54c-3.42,-2.24 -7.35,-3.36 -11.8,-3.36c-1.4,0 -2.65,0.16 -3.77,0.48c-1.12,0.31 -2.08,0.76 -2.89,1.34c-0.8,0.57 -1.42,1.26 -1.86,2.06c-0.44,0.8 -0.66,1.69 -0.66,2.66c0,1.21 0.22,2.22 0.66,3.04c0.44,0.82 1.08,1.54 1.93,2.18c0.85,0.64 1.88,1.21 3.09,1.73c1.21,0.51 2.59,1.07 4.13,1.68c2.06,0.78 3.91,1.59 5.54,2.43s3.03,1.77 4.18,2.81c1.15,1.05 2.04,2.25 2.66,3.61c0.62,1.36 0.93,2.98 0.93,4.86c0,2.3 -0.51,4.3 -1.52,5.99c-1.02,1.7 -2.37,3.11 -4.07,4.23c-1.69,1.12 -3.65,1.95 -5.86,2.5c-2.21,0.54 -4.52,0.81 -6.94,0.81c-4.79,0 -8.94,-0.92 -12.45,-2.77z" id="svg_6"/>
  <path d="m292.6,70.93c-6.88,0 -12.36,-2.17 -16.47,-6.52c-4.1,-4.34 -6.15,-10.1 -6.15,-17.27c0,-7.81 2.14,-13.91 6.4,-18.3c4.27,-4.39 10.04,-6.59 17.31,-6.59c6.93,0 12.34,2.14 16.23,6.41s5.83,10.18 5.83,17.75c0,7.42 -2.09,13.36 -6.29,17.82c-4.19,4.47 -9.81,6.7 -16.86,6.7zm0.54,-42.41c-4.78,0 -8.57,1.62 -11.35,4.88s-4.18,7.74 -4.18,13.46c0,5.51 1.41,9.86 4.22,13.04s6.59,4.76 11.31,4.76c4.81,0 8.51,-1.55 11.1,-4.67c2.59,-3.12 3.89,-7.56 3.89,-13.31c0,-5.81 -1.3,-10.29 -3.89,-13.44c-2.59,-3.15 -6.29,-4.72 -11.1,-4.72z" id="svg_7"/>
  <path d="m348.95,7.54c-1.45,-0.82 -3.1,-1.23 -4.95,-1.23c-5.21,0 -7.81,3.29 -7.81,9.86l0,7.17l10.9,0l0,6.36l-10.9,0l0,40.14l-7.4,0l0,-40.14l-7.95,0l0,-6.36l7.95,0l0,-7.54c0,-4.87 1.41,-8.72 4.22,-11.55c2.82,-2.83 6.33,-4.25 10.53,-4.25c2.27,0 4.08,0.27 5.41,0.82l0,6.72z" id="svg_8"/>
  <path d="m378.33,69.39c-1.76,0.97 -4.07,1.45 -6.95,1.45c-8.14,0 -12.21,-4.54 -12.21,-13.62l0,-27.52l-8,0l0,-6.36l8,0l0,-11.35l7.44,-2.41l0,13.76l11.72,0l0,6.36l-11.72,0l0,26.2c0,3.12 0.53,5.34 1.59,6.67c1.06,1.34 2.82,2 5.27,2c1.88,0 3.5,-0.51 4.86,-1.54l0,6.36z" id="svg_9"/>
  <path d="m0,264.24l0,-177.85l49.11,0c62.67,0 94.01,28.9 94.01,86.7c0,27.45 -8.7,49.5 -26.1,66.16c-17.41,16.66 -40.71,24.99 -69.89,24.99l-47.13,0zm20.84,-158.99l0,140.14l26.54,0c23.31,0 41.46,-6.24 54.44,-18.73c12.98,-12.48 19.47,-30.18 19.47,-53.08c0,-45.56 -24.22,-68.34 -72.67,-68.34l-27.78,0l0,0.01z" id="svg_10"/>
  <path d="m185.79,105c-3.64,0 -6.74,-1.24 -9.3,-3.72c-2.57,-2.48 -3.85,-5.63 -3.85,-9.43c0,-3.8 1.28,-6.97 3.85,-9.49c2.56,-2.52 5.66,-3.78 9.3,-3.78c3.72,0 6.88,1.26 9.49,3.78c2.6,2.52 3.9,5.69 3.9,9.49c0,3.64 -1.3,6.74 -3.9,9.3c-2.61,2.57 -5.77,3.85 -9.49,3.85zm9.92,159.24l-20.34,0l0,-127l20.34,0l0,127z" id="svg_11"/>
  <path d="m303.11,157.83c-3.55,-2.73 -8.68,-4.09 -15.38,-4.09c-8.68,0 -15.93,4.09 -21.76,12.27c-5.83,8.19 -8.75,19.35 -8.75,33.49l0,64.74l-20.34,0l0,-127l20.34,0l0,26.17l0.5,0c2.89,-8.93 7.32,-15.89 13.27,-20.9c5.95,-5 12.61,-7.5 19.97,-7.5c5.29,0 9.34,0.58 12.15,1.74l0,21.08z" id="svg_12"/>
  <path d="m423.91,205.83l-89.67,0c0.33,14.14 4.14,25.05 11.41,32.74c7.28,7.69 17.28,11.53 30.02,11.53c14.3,0 27.45,-4.71 39.44,-14.14l0,19.1c-11.17,8.11 -25.92,12.16 -44.28,12.16c-17.94,0 -32.04,-5.77 -42.29,-17.3c-10.25,-11.54 -15.38,-27.76 -15.38,-48.68c0,-19.76 5.6,-35.86 16.8,-48.31c11.21,-12.44 25.12,-18.67 41.74,-18.67s29.47,5.38 38.57,16.13c9.09,10.75 13.64,25.67 13.64,44.77l0,10.67zm-20.83,-17.24c-0.09,-11.74 -2.92,-20.88 -8.5,-27.41c-5.58,-6.53 -13.33,-9.8 -23.25,-9.8c-9.6,0 -17.74,3.43 -24.44,10.3s-10.83,15.83 -12.4,26.91l68.59,0z" id="svg_13"/>
  <path d="m541.24,258.41c-9.76,5.87 -21.33,8.81 -34.73,8.81c-18.1,0 -32.72,-5.89 -43.84,-17.67c-11.12,-11.79 -16.68,-27.06 -16.68,-45.83c0,-20.92 5.99,-37.72 17.98,-50.41c11.99,-12.7 27.99,-19.04 48,-19.04c11.16,0 21,2.06 29.52,6.2l0,20.83c-9.43,-6.61 -19.52,-9.92 -30.26,-9.92c-12.99,0 -23.63,4.65 -31.94,13.95c-8.31,9.31 -12.47,21.52 -12.47,36.65c0,14.89 3.91,26.63 11.73,35.22c7.81,8.61 18.29,12.9 31.43,12.9c11.08,0 21.5,-3.68 31.26,-11.03l0,19.34z" id="svg_14"/>
  <path d="m630.91,263c-4.8,2.65 -11.12,3.97 -18.98,3.97c-22.24,0 -33.36,-12.4 -33.36,-37.21l0,-75.15l-21.83,0l0,-17.37l21.83,0l0,-31l20.34,-6.58l0,37.58l32,0l0,17.37l-32,0l0,71.56c0,8.52 1.44,14.59 4.34,18.23c2.89,3.64 7.69,5.46 14.39,5.46c5.12,0 9.55,-1.41 13.27,-4.22l0,17.36z" id="svg_15"/>
  <path d="m783.58,264.24l-25.43,0l-40.92,-68.09c-1.24,-2.06 -2.61,-5 -4.1,-8.8l-0.49,0c-0.83,1.9 -2.23,4.84 -4.22,8.8l-42.17,68.09l-25.54,0l59.53,-89.42l-54.82,-88.43l25.55,0l36.33,62.51c2.4,4.14 4.51,8.27 6.33,12.4l0.5,0c2.64,-5.46 4.96,-9.75 6.94,-12.9l37.83,-62.01l23.94,0l-55.94,88.18l56.68,89.67z" id="svg_16" transform="matrix(1 0 0 1 0 0)"/>
  <path d="m395.05,34.79c-3.44,0 -6.38,-1.22 -8.81,-3.65c-2.43,-2.43 -3.64,-5.36 -3.64,-8.8c0,-3.45 1.21,-6.38 3.64,-8.81c2.43,-2.43 5.37,-3.65 8.81,-3.65c3.43,0 6.36,1.22 8.79,3.65c2.43,2.43 3.64,5.36 3.64,8.81c0,3.44 -1.21,6.37 -3.64,8.8c-2.43,2.43 -5.36,3.65 -8.79,3.65zm0,-23.44c-3.04,0 -5.63,1.07 -7.77,3.22c-2.15,2.14 -3.22,4.73 -3.22,7.77c0,3.03 1.07,5.62 3.22,7.76c2.14,2.14 4.73,3.21 7.77,3.21c3.03,0 5.62,-1.07 7.76,-3.21s3.21,-4.73 3.21,-7.76c0,-3.03 -1.07,-5.62 -3.21,-7.77c-2.14,-2.15 -4.73,-3.22 -7.76,-3.22zm6.04,18.77l-2.69,0l-1.73,-3.8c-0.87,-1.9 -1.81,-2.86 -2.82,-2.86l-1.46,0l0,6.66l-2.21,0l0,-15.84l4.45,0c1.85,0 3.27,0.39 4.28,1.17c1,0.77 1.5,1.82 1.5,3.15c0,1.09 -0.35,2.01 -1.06,2.77c-0.7,0.77 -1.68,1.28 -2.94,1.55l0,0.06c0.87,0.19 1.74,1.16 2.6,2.92l2.08,4.22zm-8.7,-13.94l0,5.41l2.38,0c2.18,0 3.27,-0.91 3.27,-2.72c0,-0.98 -0.3,-1.67 -0.88,-2.08c-0.59,-0.41 -1.52,-0.61 -2.79,-0.61l-1.98,0z" id="svg_19"/>
  <path d="m797.07,112.69c-3.44,0 -6.38,-1.22 -8.8,-3.65c-2.43,-2.43 -3.65,-5.36 -3.65,-8.81c0,-3.44 1.22,-6.37 3.65,-8.8c2.42,-2.43 5.36,-3.65 8.8,-3.65c3.43,0 6.36,1.22 8.79,3.65c2.43,2.43 3.65,5.36 3.65,8.8c0,3.45 -1.22,6.38 -3.65,8.81c-2.43,2.43 -5.36,3.65 -8.79,3.65zm0,-23.45c-3.03,0 -5.62,1.08 -7.77,3.23c-2.14,2.14 -3.22,4.73 -3.22,7.76c0,3.04 1.07,5.63 3.22,7.77c2.15,2.14 4.74,3.21 7.77,3.21c3.04,0 5.62,-1.07 7.77,-3.21c2.14,-2.15 3.21,-4.73 3.21,-7.77c0,-3.03 -1.07,-5.62 -3.21,-7.76c-2.15,-2.15 -4.73,-3.23 -7.77,-3.23zm6.05,18.78l-2.69,0l-1.73,-3.8c-0.87,-1.91 -1.82,-2.86 -2.82,-2.86l-1.46,0l0,6.66l-2.21,0l0,-15.84l4.45,0c1.85,0 3.27,0.39 4.27,1.16c1,0.78 1.51,1.83 1.51,3.16c0,1.08 -0.36,2.01 -1.06,2.77c-0.7,0.76 -1.68,1.28 -2.95,1.54l0,0.07c0.88,0.19 1.75,1.16 2.61,2.92l2.08,4.22zm-8.7,-13.94l0,5.41l2.37,0c2.18,0 3.27,-0.91 3.27,-2.73c0,-0.97 -0.29,-1.66 -0.88,-2.07c-0.58,-0.41 -1.52,-0.61 -2.79,-0.61l-1.97,0z" id="svg_20"/>
  <text fill="#000000" font-family="Monospace" font-size="24" font-style="normal" font-weight="normal" id="svg_21" stroke="#000000" stroke-width="0" text-anchor="middle" transform="matrix(6.1326 0 0 7.65025 -4321.45 -1066.45)" x="846.29" xml:space="preserve" y="173.95">12</text>
 </g>
</svg>

<?xml version="1.0" encoding="UTF-8" standalone="no"?>
<!DOCTYPE svg PUBLIC "-//W3C//DTD SVG 1.1//EN" "http://www.w3.org/Graphics/SVG/1.1/DTD/svg11.dtd">
<svg width="100%" height="100%" viewBox="0 0 1050 350" version="1.1" xmlns="http://www.w3.org/2000/svg" xmlns:xlink="http://www.w3.org/1999/xlink" xml:space="preserve" xmlns:serif="http://www.serif.com/" style="fill-rule:evenodd;clip-rule:evenodd;stroke-linejoin:round;stroke-miterlimit:2;">
    <g transform="matrix(1,0,0,1,57.4755,50.2814)">
        <path id="svg_1" d="M66.5,69.84L58.91,69.84L58.91,26.16C58.91,22.7 59.13,18.48 59.55,13.49L59.37,13.49C58.64,16.42 57.99,18.53 57.41,19.8L35.16,69.84L31.44,69.84L9.23,20.16C8.6,18.71 7.95,16.48 7.28,13.49L7.1,13.49C7.34,16.09 7.46,20.34 7.46,26.25L7.46,69.84L0.11,69.84L0.11,4.72L10.19,4.72L30.17,50.13C31.71,53.61 32.71,56.22 33.16,57.94L33.44,57.94C34.74,54.37 35.78,51.71 36.57,49.95L56.96,4.72L66.5,4.72L66.5,69.84Z" style="fill-rule:nonzero;"/>
        <path id="svg_2" d="M86.43,11.53C85.1,11.53 83.96,11.08 83.03,10.17C82.09,9.26 81.62,8.11 81.62,6.72C81.62,5.33 82.09,4.17 83.03,3.25C83.96,2.32 85.1,1.86 86.43,1.86C87.79,1.86 88.95,2.32 89.91,3.25C90.86,4.17 91.34,5.33 91.34,6.72C91.34,8.05 90.86,9.19 89.91,10.13C88.95,11.06 87.79,11.53 86.43,11.53ZM90.06,69.84L82.62,69.84L82.62,23.34L90.06,23.34L90.06,69.84Z" style="fill-rule:nonzero;"/>
        <path id="svg_3" d="M136.84,67.71C133.26,69.86 129.03,70.93 124.12,70.93C117.49,70.93 112.14,68.77 108.07,64.46C104,60.15 101.96,54.55 101.96,47.68C101.96,40.02 104.16,33.87 108.55,29.22C112.93,24.57 118.79,22.25 126.12,22.25C130.21,22.25 133.81,23.01 136.93,24.52L136.93,32.15C133.48,29.73 129.78,28.52 125.85,28.52C121.09,28.52 117.2,30.22 114.16,33.63C111.11,37.03 109.59,41.5 109.59,47.05C109.59,52.49 111.02,56.79 113.88,59.94C116.74,63.09 120.58,64.66 125.39,64.66C129.45,64.66 133.27,63.32 136.84,60.62L136.84,67.71Z" style="fill-rule:nonzero;"/>
        <path id="svg_4" d="M172.35,30.88C171.05,29.88 169.17,29.38 166.72,29.38C163.54,29.38 160.88,30.88 158.75,33.88C156.61,36.87 155.55,40.96 155.55,46.14L155.55,69.84L148.1,69.84L148.1,23.34L155.55,23.34L155.55,32.92L155.73,32.92C156.79,29.65 158.41,27.1 160.59,25.27C162.77,23.44 165.2,22.52 167.9,22.52C169.84,22.52 171.32,22.74 172.35,23.16L172.35,30.88Z" style="fill-rule:nonzero;"/>
        <path id="svg_5" d="M198.64,70.93C191.77,70.93 186.28,68.76 182.18,64.41C178.08,60.07 176.03,54.31 176.03,47.14C176.03,39.33 178.16,33.23 182.43,28.84C186.7,24.45 192.47,22.25 199.73,22.25C206.66,22.25 212.07,24.39 215.97,28.66C219.87,32.93 221.8,38.84 221.8,46.41C221.8,53.83 219.7,59.77 215.51,64.23C211.32,68.7 205.69,70.93 198.64,70.93ZM199.19,28.52C194.4,28.52 190.62,30.14 187.83,33.4C185.05,36.65 183.66,41.14 183.66,46.86C183.66,52.37 185.06,56.72 187.88,59.9C190.7,63.08 194.46,64.66 199.19,64.66C204,64.66 207.7,63.11 210.29,59.99C212.88,56.87 214.17,52.43 214.17,46.68C214.17,40.87 212.88,36.39 210.29,33.24C207.7,30.09 204,28.52 199.19,28.52Z" style="fill-rule:nonzero;"/>
        <path id="svg_6" d="M230.88,68.16L230.88,60.17C234.94,63.17 239.4,64.67 244.28,64.67C250.82,64.67 254.09,62.49 254.09,58.13C254.09,56.89 253.81,55.83 253.25,54.97C252.69,54.11 251.93,53.34 250.98,52.68C250.02,52.01 248.9,51.41 247.62,50.88C246.33,50.35 244.94,49.8 243.46,49.23C241.4,48.41 239.59,47.58 238.03,46.75C236.47,45.92 235.17,44.98 234.13,43.94C233.09,42.89 232.3,41.7 231.77,40.37C231.24,39.04 230.97,37.48 230.97,35.69C230.97,33.51 231.47,31.59 232.47,29.9C233.47,28.22 234.8,26.82 236.47,25.68C238.13,24.55 240.03,23.69 242.17,23.12C244.3,22.54 246.5,22.25 248.78,22.25C252.8,22.25 256.4,22.95 259.58,24.34L259.58,31.88C256.16,29.64 252.23,28.52 247.78,28.52C246.38,28.52 245.13,28.68 244.01,29C242.89,29.31 241.93,29.76 241.12,30.34C240.32,30.91 239.7,31.6 239.26,32.4C238.82,33.2 238.6,34.09 238.6,35.06C238.6,36.27 238.82,37.28 239.26,38.1C239.7,38.92 240.34,39.64 241.19,40.28C242.04,40.92 243.07,41.49 244.28,42.01C245.49,42.52 246.87,43.08 248.41,43.69C250.47,44.47 252.32,45.28 253.95,46.12C255.58,46.96 256.98,47.89 258.13,48.93C259.28,49.98 260.17,51.18 260.79,52.54C261.41,53.9 261.72,55.52 261.72,57.4C261.72,59.7 261.21,61.7 260.2,63.39C259.18,65.09 257.83,66.5 256.13,67.62C254.44,68.74 252.48,69.57 250.27,70.12C248.06,70.66 245.75,70.93 243.33,70.93C238.54,70.93 234.39,70.01 230.88,68.16Z" style="fill-rule:nonzero;"/>
        <path id="svg_7" d="M292.6,70.93C285.72,70.93 280.24,68.76 276.13,64.41C272.03,60.07 269.98,54.31 269.98,47.14C269.98,39.33 272.12,33.23 276.38,28.84C280.65,24.45 286.42,22.25 293.69,22.25C300.62,22.25 306.03,24.39 309.92,28.66C313.81,32.93 315.75,38.84 315.75,46.41C315.75,53.83 313.66,59.77 309.46,64.23C305.27,68.7 299.65,70.93 292.6,70.93ZM293.14,28.52C288.36,28.52 284.57,30.14 281.79,33.4C279.01,36.66 277.61,41.14 277.61,46.86C277.61,52.37 279.02,56.72 281.83,59.9C284.64,63.08 288.42,64.66 293.14,64.66C297.95,64.66 301.65,63.11 304.24,59.99C306.83,56.87 308.13,52.43 308.13,46.68C308.13,40.87 306.83,36.39 304.24,33.24C301.65,30.09 297.95,28.52 293.14,28.52Z" style="fill-rule:nonzero;"/>
        <path id="svg_8" d="M348.95,7.54C347.5,6.72 345.85,6.31 344,6.31C338.79,6.31 336.19,9.6 336.19,16.17L336.19,23.34L347.09,23.34L347.09,29.7L336.19,29.7L336.19,69.84L328.79,69.84L328.79,29.7L320.84,29.7L320.84,23.34L328.79,23.34L328.79,15.8C328.79,10.93 330.2,7.08 333.01,4.25C335.83,1.42 339.34,0 343.54,0C345.81,0 347.62,0.27 348.95,0.82L348.95,7.54Z" style="fill-rule:nonzero;"/>
        <path id="svg_9" d="M378.33,69.39C376.57,70.36 374.26,70.84 371.38,70.84C363.24,70.84 359.17,66.3 359.17,57.22L359.17,29.7L351.17,29.7L351.17,23.34L359.17,23.34L359.17,11.99L366.61,9.58L366.61,23.34L378.33,23.34L378.33,29.7L366.61,29.7L366.61,55.9C366.61,59.02 367.14,61.24 368.2,62.57C369.26,63.91 371.02,64.57 373.47,64.57C375.35,64.57 376.97,64.06 378.33,63.03L378.33,69.39Z" style="fill-rule:nonzero;"/>
        <path id="svg_10" d="M0,264.24L0,86.39L49.11,86.39C111.78,86.39 143.12,115.29 143.12,173.09C143.12,200.54 134.42,222.59 117.02,239.25C99.61,255.91 76.31,264.24 47.13,264.24L0,264.24ZM20.84,105.24L20.84,245.39L47.38,245.39C70.69,245.39 88.84,239.15 101.82,226.66C114.8,214.18 121.29,196.48 121.29,173.58C121.29,128.02 97.07,105.24 48.62,105.24L20.84,105.24Z" style="fill-rule:nonzero;"/>
        <path id="svg_11" d="M185.79,105C182.15,105 179.05,103.76 176.49,101.28C173.92,98.8 172.64,95.65 172.64,91.85C172.64,88.05 173.92,84.88 176.49,82.36C179.05,79.84 182.15,78.58 185.79,78.58C189.51,78.58 192.67,79.84 195.28,82.36C197.88,84.88 199.18,88.05 199.18,91.85C199.18,95.49 197.88,98.59 195.28,101.15C192.67,103.72 189.51,105 185.79,105ZM195.71,264.24L175.37,264.24L175.37,137.24L195.71,137.24L195.71,264.24Z" style="fill-rule:nonzero;"/>
        <path id="svg_12" d="M303.11,157.83C299.56,155.1 294.43,153.74 287.73,153.74C279.05,153.74 271.8,157.83 265.97,166.01C260.14,174.2 257.22,185.36 257.22,199.5L257.22,264.24L236.88,264.24L236.88,137.24L257.22,137.24L257.22,163.41L257.72,163.41C260.61,154.48 265.04,147.52 270.99,142.51C276.94,137.51 283.6,135.01 290.96,135.01C296.25,135.01 300.3,135.59 303.11,136.75L303.11,157.83Z" style="fill-rule:nonzero;"/>
        <path id="svg_13" d="M423.91,205.83L334.24,205.83C334.57,219.97 338.38,230.88 345.65,238.57C352.93,246.26 362.93,250.1 375.67,250.1C389.97,250.1 403.12,245.39 415.11,235.96L415.11,255.06C403.94,263.17 389.19,267.22 370.83,267.22C352.89,267.22 338.79,261.45 328.54,249.92C318.29,238.38 313.16,222.16 313.16,201.24C313.16,181.48 318.76,165.38 329.96,152.93C341.17,140.49 355.08,134.26 371.7,134.26C388.32,134.26 401.17,139.64 410.27,150.39C419.36,161.14 423.91,176.06 423.91,195.16L423.91,205.83ZM403.08,188.59C402.99,176.85 400.16,167.71 394.58,161.18C389,154.65 381.25,151.38 371.33,151.38C361.73,151.38 353.59,154.81 346.89,161.68C340.19,168.55 336.06,177.51 334.49,188.59L403.08,188.59Z" style="fill-rule:nonzero;"/>
        <path id="svg_14" d="M541.24,258.41C531.48,264.28 519.91,267.22 506.51,267.22C488.41,267.22 473.79,261.33 462.67,249.55C451.55,237.76 445.99,222.49 445.99,203.72C445.99,182.8 451.98,166 463.97,153.31C475.96,140.61 491.96,134.27 511.97,134.27C523.13,134.27 532.97,136.33 541.49,140.47L541.49,161.3C532.06,154.69 521.97,151.38 511.23,151.38C498.24,151.38 487.6,156.03 479.29,165.33C470.98,174.64 466.82,186.85 466.82,201.98C466.82,216.87 470.73,228.61 478.55,237.2C486.36,245.81 496.84,250.1 509.98,250.1C521.06,250.1 531.48,246.42 541.24,239.07L541.24,258.41Z" style="fill-rule:nonzero;"/>
        <path id="svg_15" d="M630.91,263C626.11,265.65 619.79,266.97 611.93,266.97C589.69,266.97 578.57,254.57 578.57,229.76L578.57,154.61L556.74,154.61L556.74,137.24L578.57,137.24L578.57,106.24L598.91,99.66L598.91,137.24L630.91,137.24L630.91,154.61L598.91,154.61L598.91,226.17C598.91,234.69 600.35,240.76 603.25,244.4C606.14,248.04 610.94,249.86 617.64,249.86C622.76,249.86 627.19,248.45 630.91,245.64L630.91,263Z" style="fill-rule:nonzero;"/>
        <path id="svg_16" d="M783.58,264.24L758.15,264.24L717.23,196.15C715.99,194.09 714.62,191.15 713.13,187.35L712.64,187.35C711.81,189.25 710.41,192.19 708.42,196.15L666.25,264.24L640.71,264.24L700.24,174.82L645.42,86.39L670.97,86.39L707.3,148.9C709.7,153.04 711.81,157.17 713.63,161.3L714.13,161.3C716.77,155.84 719.09,151.55 721.07,148.4L758.9,86.39L782.84,86.39L726.9,174.57L783.58,264.24Z" style="fill-rule:nonzero;"/>
        <path id="svg_19" d="M395.05,34.79C391.61,34.79 388.67,33.57 386.24,31.14C383.81,28.71 382.6,25.78 382.6,22.34C382.6,18.89 383.81,15.96 386.24,13.53C388.67,11.1 391.61,9.88 395.05,9.88C398.48,9.88 401.41,11.1 403.84,13.53C406.27,15.96 407.48,18.89 407.48,22.34C407.48,25.78 406.27,28.71 403.84,31.14C401.41,33.57 398.48,34.79 395.05,34.79ZM395.05,11.35C392.01,11.35 389.42,12.42 387.28,14.57C385.13,16.71 384.06,19.3 384.06,22.34C384.06,25.37 385.13,27.96 387.28,30.1C389.42,32.24 392.01,33.31 395.05,33.31C398.08,33.31 400.67,32.24 402.81,30.1C404.95,27.96 406.02,25.37 406.02,22.34C406.02,19.31 404.95,16.72 402.81,14.57C400.67,12.42 398.08,11.35 395.05,11.35ZM401.09,30.12L398.4,30.12L396.67,26.32C395.8,24.42 394.86,23.46 393.85,23.46L392.39,23.46L392.39,30.12L390.18,30.12L390.18,14.28L394.63,14.28C396.48,14.28 397.9,14.67 398.91,15.45C399.91,16.22 400.41,17.27 400.41,18.6C400.41,19.69 400.06,20.61 399.35,21.37C398.65,22.14 397.67,22.65 396.41,22.92L396.41,22.98C397.28,23.17 398.15,24.14 399.01,25.9L401.09,30.12ZM392.39,16.18L392.39,21.59L394.77,21.59C396.95,21.59 398.04,20.68 398.04,18.87C398.04,17.89 397.74,17.2 397.16,16.79C396.57,16.38 395.64,16.18 394.37,16.18L392.39,16.18Z" style="fill-rule:nonzero;"/>
        <path id="svg_20" d="M797.07,112.69C793.63,112.69 790.69,111.47 788.27,109.04C785.84,106.61 784.62,103.68 784.62,100.23C784.62,96.79 785.84,93.86 788.27,91.43C790.69,89 793.63,87.78 797.07,87.78C800.5,87.78 803.43,89 805.86,91.43C808.29,93.86 809.51,96.79 809.51,100.23C809.51,103.68 808.29,106.61 805.86,109.04C803.43,111.47 800.5,112.69 797.07,112.69ZM797.07,89.24C794.04,89.24 791.45,90.32 789.3,92.47C787.16,94.61 786.08,97.2 786.08,100.23C786.08,103.27 787.15,105.86 789.3,108C791.45,110.14 794.04,111.21 797.07,111.21C800.11,111.21 802.69,110.14 804.84,108C806.98,105.85 808.05,103.27 808.05,100.23C808.05,97.2 806.98,94.61 804.84,92.47C802.69,90.32 800.11,89.24 797.07,89.24ZM803.12,108.02L800.43,108.02L798.7,104.22C797.83,102.31 796.88,101.36 795.88,101.36L794.42,101.36L794.42,108.02L792.21,108.02L792.21,92.18L796.66,92.18C798.51,92.18 799.93,92.57 800.93,93.34C801.93,94.12 802.44,95.17 802.44,96.5C802.44,97.58 802.08,98.51 801.38,99.27C800.68,100.03 799.7,100.55 798.43,100.81L798.43,100.88C799.31,101.07 800.18,102.04 801.04,103.8L803.12,108.02ZM794.42,94.08L794.42,99.49L796.79,99.49C798.97,99.49 800.06,98.58 800.06,96.76C800.06,95.79 799.77,95.1 799.18,94.69C798.6,94.28 797.66,94.08 796.39,94.08L794.42,94.08Z" style="fill-rule:nonzero;"/>
        <g id="svg_21" transform="matrix(6.1326,0,0,7.65025,868.508,264.311)">
            <text x="-13.348px" y="0px" style="font-family:'ArialMT', 'Arial', sans-serif;font-size:24px;">12</text>
        </g>
    </g>
</svg>
